**kern
*staff2
*tb16
=1-
*clefG2
*k[f#]
*M6/8
8r
.
8d/L 8g/L 8b/L
.
8d/J 8g/J 8b/J
.
8r
.
8d/L 8g/L 8b/L
.
8d/J 8g/J 8b/J
.
=2
8r
.
8d/L 8f#/L 8cc/L
.
8d/J 8f#/J 8cc/J
.
8r
.
8d/L 8f#/L 8cc/L
.
8d/J 8f#/J 8cc/J
.
=3
8r
.
8d/L 8g/L 8b/L
.
8d/J 8g/J 8b/J
.
8r
.
8B/L 8e/L 8g/L
.
8B/J 8e/J 8g/J
.
=4
!!linebreak:original
8r
.
8A/L 8d/L 8f#/L
.
8A/J 8d/J 8f#/J
.
8r
.
8A/L 8c#/L 8g/L
.
8A/J 8c#/J 8g/J
.
=5
8r
.
8A/L 8d/L 8f#/L
.
8A/J 8d/J 8f#/J
.
8r
.
8A/L 8d/L 8f#/L
.
8A/J 8d/J 8f#/J
.
=6
8r
.
8A/L 8c#/L 8g/L
.
8A/J 8c#/J 8g/J
.
8r
.
8A/L 8c#/L 8g/L
.
8A/J 8c#/J 8g/J
.
=7
8r
.
8A/L 8d/L
.
8A/J 8d/J
.
8r
.
8F#/L 8c/L 8d#/L
.
8F#/J 8c/J 8d#/J
.
=8
!!linebreak:original
8r
.
8G/L 8B/L 8e/L
.
8G/J 8B/J 8e/J
.
8r
.
8A/L 8d/L 8f#/L
.
8A/J 8d/J 8f#/J
.
=9
8r
.
8B/L 8d/L 8g/L
.
8B/J 8d/J 8g/J
.
8r
.
8f-/L
.
8B/J 8e/J 8g/J
.
=10
8r
.
8c/L 8e/L 8a/L
.
8c/J 8e/J 8a/J
.
8r
.
8d/L 8g/L 8b/L
.
8d/J 8g/J 8b/J
.
=11
8r
.
8c/L 8g/L 8cc/L
.
8c/J 8g/J 8cc/J
.
8r
.
8e/L 8g/L 8cc#/L
.
8e/J 8g/J 8cc#/J
.
=12
!!linebreak:original
8r
.
8d/L 8g/L 8b/L 8dd/L
.
8d/J 8g/J 8b/J
.
8r
.
8d/L 8f#/L 8cc/L
.
8d~/J 8f#~/J 8cc~/J
.
=13
8r
.
8d/L 8g/L 8b/L
.
8d/J 8g/J 8b/J
.
*^
(4gg/	8r
.	.
.	8g\L 8b\L
.	.
8ff#/)	8g\J 8b\J
.	.
=14	=14
(4ee/	8r
.	.
.	8f#\L 8a\L
.	.
8dd/)	8f#\J 8a\J
.	.
(4cc#/	8r
.	.
.	8e\L 8g\L
.	.
8cc#/)	8f#\J 8a\J
.	.
=15	=15
4.b/	8r
.	.
.	8d\L 8g\L
.	.
.	8d\J 8g\J
.	.
*v	*v
8r
.
8d/L 8g/L 8b/L
.
8d/J 8g/J 8b/J
.
=16
!!linebreak:original
8r
.
8d/L 8f#/L 8cc/L
.
8d/J 8f#/J 8cc/J
.
8r
.
8d/L 8f#/L 8cc/L
.
8d/J 8f#/J 8cc/J
.
=17
8r
.
8d/L 8g/L 8b/L
.
8d/J 8g/J 8b/J
.
8r
.
8B/L 8e/L 8g/L
.
8B/J 8e/J 8g/J
.
=18
8r
.
8A/L 8d/L 8f#/L
.
8A/J 8d/J 8f#/J
.
8r
.
8A/L 8c#/L 8g/L
.
8A/J 8c#/J 8g/J
.
=19
8r
.
8A/L 8d/L 8f#/L
.
8A/J 8d/J 8f#/J
.
8r
.
8A/L 8d/L 8f#/L
.
8A/J 8d/J 8f#/J
.
=20
!!linebreak:original
8r
.
8A/L 8c#/L 8g/L
.
8A/J 8c#/J 8g/J
.
8r
.
8A/L 8c#/L 8g/L
.
8A/J 8c#/J 8g/J
.
=21
8r
.
8A/L 8d/L
.
8A/J 8d/J
.
8r
.
8F#/L 8c/L 8d#/L
.
8F#/J 8c/J 8d#/J
.
=22
8r
.
8G/L 8B/L 8e/L
.
8G/J 8B/J 8e/J
.
8r
.
8A/L 8d/L 8f#/L
.
8A/J 8d/J 8f#/J
.
=23
8r
.
8B/L 8d/L 8g/L
.
8B/J 8d/J 8g/J
.
8r
.
4f#/
.
.
.
=24
!!linebreak:original
8r
.
8c/L 8e/L 8a/L
.
8c/J 8e/J 8a/J
.
8r
.
8d/L 8g/L 8b/L
.
8d/J 8g/J 8b/J
.
=25
8r
.
8c/L 8g/L 8cc/L
.
8c/J 8g/J 8cc/J
.
8r
.
8e/L 8g/L 8cc#/L
.
8e/J 8g/J 8cc#/J
.
=26
8r
.
8d/L 8g/L 8b/L 8dd/L
.
8d/J 8g/J 8b/J
.
8r
.
8d/L 8f#/L 8a/L
.
8d/J 8f#/J 8a/J
.
=27
8r
.
8d/L 8g/L 8b/L
.
8d/J 8g/J 8b/J
.
*^
(4gg/	8r
.	.
.	8g\L 8b\L
.	.
8ff#/)	8g\J 8b\J
.	.
*v	*v
=28
!!linebreak:original
*^
(4ee/	8r
.	.
.	8f#\L 8a\L
.	.
8dd/)	8f#\J 8a\J
.	.
(4cc#/	8r
.	.
.	8e\L 8g\L
.	.
*v	*v
8cc#/)
.
=29
*^
4.b/	8r
.	.
.	8d\L 8g\L
.	.
.	8d\J 8g\J
.	.
*v	*v
8r
.
8d/L 8g/L 8b/L
.
8d/J 8g/J 8b/J
.
=30
8r
.
8e/L 8g/L 8b-/L
.
8e/J 8g/J 8a/J
.
8r
.
8e-/L 8f#/L 8a/L
.
8d/J 8f#/J 8a/J
.
=31
8r
.
8G/L 8d/L 8g/L
.
8G/J 8d/J 8g/J
.
8r
.
8G/L 8d/L 8g/L
.
8G/J 8d/J 8g/J
.
=32
!!linebreak:original
8r
.
8A/L 8d/L 8f#/L
.
8A/J 8d/J 8f#/J
.
8r
.
8A/L 8c#/L 8g/L
.
8A/J 8c#/J 8g/J
.
=33
8r
.
8A/L 8d/L 8f#/L
.
8A/J 8d/J 8f#/J
.
8r
.
8A/L 8d/L 8f#/L
.
8A/J 8d/J 8f#/J
.
=34
8r
.
8A/L 8c#/L 8g/L
.
8A/J 8c#/J 8g/J
.
8r
.
8A/L 8c#/L 8g/L
.
8A/J 8c#/J 8g/J
.
=35
8r
.
8A/L 8c/L 8d#/L
.
8A/J 8c/J 8d#/J
.
8r
.
8B/L 8e/L
.
8B/J 8e/J
.
=36
!!linebreak:original
8r
.
8c/L 8e-/L 8f#/L
.
8c/J 8e-/J 8f#/J
.
8r
.
8d/L 8g/L
.
8d/ 8g/
.
=37
8r
.
8d/J 8f#/J 8g/J
.
8r
.
8.e/L 8.a/L
.
.
8.e/J 8.a/J
.
.
=38
8r
.
8f#/L 8a-/L 8b/L
.
8f#/J 8a-/J 8b/J
.
8r
.
8g/L 8cc/L
.
8g/J 8cc/J
.
=39
8r
.
8en/L 8g/L 8cc#/L
.
8e/J 8g/J 8cc#/J
.
8r
.
8e/L 8g/L 8cc#/L
.
8e/J 8g/J 8cc#/J
.
=40
!!linebreak:original
8r
.
8e/L 8g/L 8cc#/L
.
8e/J 8g/J 8cc#/J
.
8r
.
8e/L 8g/L 8cc#/L
.
8e/J 8g/J 8cc#/J
.
=41
8r
.
8d/L 8f#/L 8ccn/L
.
8d/J 8f#/J 8cc/J
.
8r
.
8d/L 8f#/L 8cc/L
.
8d/J 8f#/J 8cc/J
.
=42
8r
.
8d/L 8g/L 8b-/L
.
8d/J 8g/J 8b-/J
.
8r
.
8B-/L 8e/L 8g/L
.
8B-/J 8e/J 8g/J
.
=43
8r
.
8A/L 8d/L 8f#/L
.
8A/J 8d/J 8f#/J
.
8r
.
8G/L 8d/L 8g/L
.
8G/J 8d/J 8g/J
.
=44
8r
.
8B/L 8d/L 8g#/L
.
8B/J 8d/J 8g#/J
.
8r
.
8A/L 8e/L 8a/L
.
8A/J 8e/J 8a/J
.
=45
!!linebreak:original
*k[f#c#]
8r
.
8B/L 8e/L 8b/L
.
8B/J 8e/J 8b/J
.
8r
.
8B/L 8e/L 8b/L
.
8B/J 8e/J 8b/J
.
=46
8r
.
8B/L 8d/L 8b/L
.
8B/J 8d/J 8b/J
.
8r
.
8c#/L 8d/L 8f#/L
.
8c#/J 8d/J 8f#/J
.
=47
8r
.
8B/L 8d/L 8g/L
.
8B/J 8d/J 8g/J
.
*^
(4ee/	8r
.	.
.	8f#\L 8a\L
.	.
8dd/)	8f#\J 8a\J
.	.
=48	=48
(4cc#/	8r
.	.
.	8e\L 8g\L
.	.
8ccn/)	8f#\J 8a\J
.	.
(4b/	8r
.	.
.	8d\L 8g\L
.	.
8ryy	8r
.	.
*v	*v
=49
2.B/) 2.d/ 2.g/
.
.
.
.
.
.
.
.
.
.
.
==
*-
